X:5762
T:Sally's Jig
O:england
R:Jig
M:6/8
C:Andy Hornby
A:Lancaster
K:G
D|\
G2B BAB|c2A A2G|F2A AGA|BAG FED|\
G2B BAB|c2A A2G|FAd cAF|G3 G2 :|
|: d|\
ded c2A|ABc B2G|FAF DEF|GAB d2B|\
ded cdc|BdB A2F|DFd cAF|G3 G2 :|
W:Copyright (C) Andy Hornby


